view/atlasmaker/src/html/img/paint.svg

<svg enable-background="new 0 0 432.544 432.544" height="432.544" viewBox="0 0 432.544 432.544" width="432.544" xmlns="http://www.w3.org/2000/svg"><g fill="#fff"><path d="m0 313.775v118.77h118.771l237.541-237.541-118.773-118.772zm103.638 82.224-30.55.004v-36.546h-36.543v-30.553l25.981-25.981 67.093 67.092zm143.045-271.229c4.182 0 6.276 2.095 6.276 6.28 0 1.906-.664 3.521-1.999 4.856l-154.746 154.745c-1.333 1.328-2.952 1.995-4.854 1.995-4.184 0-6.279-2.098-6.279-6.279 0-1.906.666-3.521 1.997-4.856l154.747-154.743c1.329-1.332 2.948-1.998 4.858-1.998z"/><path d="m421.976 77.654-67.091-66.806c-7.232-7.229-15.893-10.848-25.982-10.848-10.283 0-18.842 3.619-25.693 10.848l-47.394 47.109 118.773 118.77 47.394-47.392c7.042-7.043 10.561-15.608 10.561-25.697-.004-9.895-3.522-18.558-10.568-25.984z"/></g></svg>

<?xml version="1.0" encoding="UTF-8" standalone="no"?>
<!-- Generator: Adobe Illustrator 16.0.0, SVG Export Plug-In . SVG Version: 6.00 Build 0)  -->

<svg
   xmlns:dc="http://purl.org/dc/elements/1.1/"
   xmlns:cc="http://creativecommons.org/ns#"
   xmlns:rdf="http://www.w3.org/1999/02/22-rdf-syntax-ns#"
   xmlns:svg="http://www.w3.org/2000/svg"
   xmlns="http://www.w3.org/2000/svg"
   xmlns:sodipodi="http://sodipodi.sourceforge.net/DTD/sodipodi-0.dtd"
   xmlns:inkscape="http://www.inkscape.org/namespaces/inkscape"
   version="1.1"
   id="Capa_1"
   x="0px"
   y="0px"
   width="432.544px"
   height="432.544px"
   viewBox="0 0 432.544 432.544"
   style="enable-background:new 0 0 432.544 432.544;"
   xml:space="preserve"
   inkscape:version="0.91 r13725"
   sodipodi:docname="pencil.svg"><metadata
     id="metadata45"><rdf:RDF><cc:Work
         rdf:about=""><dc:format>image/svg+xml</dc:format><dc:type
           rdf:resource="http://purl.org/dc/dcmitype/StillImage" /></cc:Work></rdf:RDF></metadata><defs
     id="defs43" /><sodipodi:namedview
     pagecolor="#ffffff"
     bordercolor="#666666"
     borderopacity="1"
     objecttolerance="10"
     gridtolerance="10"
     guidetolerance="10"
     inkscape:pageopacity="0"
     inkscape:pageshadow="2"
     inkscape:window-width="1442"
     inkscape:window-height="854"
     id="namedview41"
     showgrid="false"
     inkscape:zoom="0.77160797"
     inkscape:cx="199.63062"
     inkscape:cy="217.34564"
     inkscape:window-x="0"
     inkscape:window-y="0"
     inkscape:window-maximized="0"
     inkscape:current-layer="Capa_1" /><path
     d="m 0,313.775 0,118.77 118.771,0 L 356.312,195.004 237.539,76.232 0,313.775 Z m 103.638,82.224 0,0 -30.55,0.004 0,-36.546 -36.543,0 0,-30.553 25.981,-25.981 67.093,67.092 -25.981,25.984 z M 246.683,124.77 c 4.182,0 6.276,2.095 6.276,6.28 0,1.906 -0.664,3.521 -1.999,4.856 L 96.214,290.651 c -1.333,1.328 -2.952,1.995 -4.854,1.995 -4.184,0 -6.279,-2.098 -6.279,-6.279 0,-1.906 0.666,-3.521 1.997,-4.856 L 241.825,126.768 c 1.329,-1.332 2.948,-1.998 4.858,-1.998 z"
     id="path7"
     inkscape:connector-curvature="0"
     style="fill:#ffffff;fill-opacity:1" /><path
     d="M 421.976,77.654 354.885,10.848 C 347.653,3.619 338.992,0 328.903,0 318.62,0 310.061,3.619 303.21,10.848 l -47.394,47.109 118.773,118.77 47.394,-47.392 c 7.042,-7.043 10.561,-15.608 10.561,-25.697 -0.004,-9.895 -3.522,-18.558 -10.568,-25.984 z"
     id="path9"
     inkscape:connector-curvature="0"
     style="fill:#ffffff;fill-opacity:1" /><g
     id="g11" /><g
     id="g13" /><g
     id="g15" /><g
     id="g17" /><g
     id="g19" /><g
     id="g21" /><g
     id="g23" /><g
     id="g25" /><g
     id="g27" /><g
     id="g29" /><g
     id="g31" /><g
     id="g33" /><g
     id="g35" /><g
     id="g37" /><g
     id="g39" /></svg>
